public/assets/link.svg

<?xml version="1.0" encoding="utf-8"?><!-- Uploaded to: SVG Repo, www.svgrepo.com, Generator: SVG Repo Mixer Tools -->
<svg width="26px" height="26px" viewBox="0 0 24 24" fill="none" xmlns="http://www.w3.org/2000/svg">
<path d="M10.6666 13.3333L10.0808 12.7475C9.29978 11.9664 9.29978 10.7001 10.0808 9.91905L14.5857 5.41416C15.3668 4.63311 16.6331 4.63311 17.4142 5.41415L18.5857 6.58572C19.3668 7.36677 19.3668 8.6331 18.5857 9.41415L16.9999 10.9999M13.3333 10.6666L13.919 11.2524C14.7001 12.0335 14.7001 13.2998 13.919 14.0808L9.41415 18.5857C8.6331 19.3668 7.36677 19.3668 6.58572 18.5857L5.41416 17.4142C4.63311 16.6331 4.63311 15.3668 5.41416 14.5857L6.99994 12.9999" stroke="#000000" stroke-width="2" stroke-linecap="round" stroke-linejoin="round"/>
</svg>

<svg xmlns="http://www.w3.org/2000/svg" width="26" height="26" fill="none" viewBox="0 0 24 24"><path stroke="#000" stroke-linecap="round" stroke-linejoin="round" stroke-width="2" d="m10.667 13.333-.586-.585a2 2 0 0 1 0-2.829l4.505-4.505a2 2 0 0 1 2.828 0l1.172 1.172a2 2 0 0 1 0 2.828L17 11m-3.667-.333.586.585a2 2 0 0 1 0 2.829l-4.505 4.505a2 2 0 0 1-2.828 0l-1.172-1.172a2 2 0 0 1 0-2.828L7 13"/></svg>
